img/icons/corp2/10.svg

<svg width="26" height="47" viewBox="0 0 26 47" fill="none" xmlns="http://www.w3.org/2000/svg">
<path d="M13.0861 29.4893C13.9618 29.4893 14.6915 28.9567 14.9834 28.182C14.9834 28.182 14.9834 28.1335 15.0321 28.1335C15.324 27.2135 14.8861 26.1967 14.2537 25.4703C13.378 24.4535 13.5726 22.8071 13.5726 22.8071C9.48612 26.3903 11.5294 28.6662 11.5294 28.6662C11.8213 29.1504 12.4537 29.4893 13.0861 29.4893Z" fill="#343434"/>
<path d="M19.1191 45.2749H6.37311C5.93527 45.2749 5.59473 45.6139 5.59473 46.0497C5.59473 46.4854 5.93527 46.8244 6.37311 46.8244H19.1191C19.5569 46.8244 19.8975 46.4854 19.8975 46.0497C19.8975 45.6139 19.5083 45.2749 19.1191 45.2749Z" fill="#343434"/>
<path d="M24.3244 24.6951V15.3981C24.3244 11.6212 22.2811 9.10331 18.9244 8.52225V1.64634C18.9244 1.59792 18.9244 1.5495 18.9244 1.50108H20.8703C21.3081 1.50108 21.6487 1.16212 21.6487 0.726328C21.6487 0.290531 21.2595 0 20.8703 0H4.62163C4.18379 0 3.84325 0.338953 3.84325 0.77475C3.84325 1.21055 4.18379 1.5495 4.62163 1.5495H6.56758C6.56758 1.59792 6.56758 1.64634 6.56758 1.69476V8.57067C3.40541 9.10331 1.45946 11.476 1.16757 15.3497V15.3981V24.6951C0.486487 24.8888 0 25.4699 0 26.1962C0 26.9226 0.486487 27.5036 1.16757 27.6489V36.9459V36.9943C1.55676 41.4975 4.03785 43.967 8.22164 43.967H17.2217C21.6 43.967 24.2757 41.2554 24.2757 36.9459V27.6489C24.9568 27.5036 25.4433 26.8741 25.4433 26.1962C25.4919 25.4699 24.9568 24.8888 24.3244 24.6951ZM8.07569 8.37698V1.64634C8.07569 1.59792 8.07569 1.5495 8.07569 1.50108H17.4162C17.4162 1.5495 17.4162 1.59792 17.4162 1.64634V8.37698H14.9352V5.52009C14.9352 5.08429 14.5946 4.74534 14.1568 4.74534H11.3838C10.946 4.74534 10.6054 5.08429 10.6054 5.52009V8.37698H8.07569ZM12.0162 17.0929C16.1514 20.8214 17.173 23.8235 17.2217 25.9541C17.2217 28.0363 16.2 29.1984 16.2 29.1984C15.4216 30.1668 14.2541 30.8447 12.8919 30.8447C11.1406 30.8447 9.63245 29.6826 9.09731 28.1815C9.04867 28.1331 9.04867 28.1331 9.04867 28.0847C9.04867 28.0847 9.00002 28.0363 9.00002 27.9878C8.41623 26.051 9.19461 24.0657 10.6054 22.4677C12.4054 20.3856 12.0162 17.0929 12.0162 17.0929ZM17.8054 33.4111C17.1244 33.7985 16.4919 33.9437 15.8108 33.9437C14.9352 33.9437 13.9622 33.7016 13.0865 33.4111C11.4811 32.9753 9.92434 32.5395 8.31893 33.4111C8.31893 33.2658 8.31893 33.1205 8.31893 32.9753C8.31893 32.83 8.31893 32.6847 8.31893 32.5395C9.92434 31.6679 11.4811 32.0553 13.0865 32.5395C14.6919 32.9753 16.2487 33.4111 17.8541 32.5395C17.8054 32.83 17.8054 33.169 17.8054 33.4111Z" fill="#343434"/>
</svg>

<svg width="26" height="47" fill="none" xmlns="http://www.w3.org/2000/svg"><path d="M13.086 29.49c.876 0 1.605-.533 1.897-1.308 0 0 0-.048.05-.048.291-.92-.147-1.937-.78-2.664-.875-1.017-.68-2.663-.68-2.663-4.087 3.583-2.044 5.86-2.044 5.86.292.483.925.822 1.557.822zm6.034 15.785H6.372a.767.767 0 0 0-.778.775c0 .435.34.774.778.774H19.12a.767.767 0 0 0 .779-.774c0-.436-.39-.775-.779-.775z" fill="#343434"/><path d="M24.324 24.695v-9.297c0-3.777-2.043-6.295-5.4-6.876V1.501h1.946a.767.767 0 0 0 .779-.775c0-.435-.39-.726-.779-.726H4.622a.767.767 0 0 0-.779.775c0 .436.34.775.779.775h1.946v7.02c-3.163.532-5.109 2.905-5.4 6.779v9.345C.486 24.89 0 25.47 0 26.196a1.46 1.46 0 0 0 1.168 1.453v9.345c.389 4.504 2.87 6.973 7.054 6.973h9c4.378 0 7.054-2.712 7.054-7.021v-9.297a1.501 1.501 0 0 0 1.167-1.453c.049-.726-.486-1.307-1.119-1.5zM8.076 8.377V1.5h9.34v6.877h-2.48V5.52a.767.767 0 0 0-.78-.775h-2.772a.767.767 0 0 0-.779.775v2.857h-2.53zm3.94 8.716c4.135 3.728 5.157 6.73 5.206 8.861 0 2.082-1.022 3.244-1.022 3.244-.778.969-1.946 1.647-3.308 1.647-1.751 0-3.26-1.162-3.795-2.663-.048-.049-.048-.049-.048-.097 0 0-.049-.049-.049-.097-.584-1.937.195-3.922 1.605-5.52 1.8-2.082 1.411-5.375 1.411-5.375zm5.79 16.318a3.86 3.86 0 0 1-1.995.533c-.876 0-1.849-.242-2.725-.533-1.605-.436-3.162-.872-4.767 0v-.872c1.605-.871 3.162-.484 4.767 0 1.606.436 3.163.872 4.768 0-.049.291-.049.63-.049.872z" fill="#343434"/></svg>
